!!!OTL: Abschied.
!!!OTL-incipit: VERLASSEN HAB ICH DEN HEIMATHORT
!!!ARE: Europa, Mitteleuropa, Deutschland, Nord - Deutschland
!!!SCT: Z1135
!!!TXL: @@DE
!!!YEM: Copyright 1995, estate of Helmut Schaffrath.
**kern	**text
*ICvox	*
*M2/4	*
*k[f#]	*
*G:	*
!LO:TX:a:t=Norddeutſch.	!
{8d	Ver-
=1	=1
4b/	-laſ-
8a	-ſen,
8a	ver-
=2	=2
8g	-laſ-
8g	.
8f#}	-ſen
{8d	hab'
=3	=3
8g	ich
8g	den
16bL	Hei-
16aJ	.
16gL	-math-
16aJ	.
=4	=4
4b/	-Ort,
8r}	.
{8d	und
=5	=5
4b/	ʒie-
8a	-he
8a	ʒum
=6	=6
8g	Krie-
8g	.
8f#}	-ge
{8d	nun
=7	=7
8g	mit
8g	den
16bL	Brü-
16aJ	.
16gL	-dern
16aJ	.
=8	=8
4b/	fort;
8r}	.
{16gL	wir
16aJ	.
=9	=9
8b	ʒie-
8b	-hen
8cc	hin
8b	durch
=10	=10
8b/	Land
8a	und
8a}	Stadt,
{8a	und
=11	=11
8g	tra-
8g	-gen
8a	un-
8g	-fres
=12	=12
8g	Kö-
8f#	-nigs
8f#}	Wadd,
{16eL	und
16f#J	.
=13	=13
8g	ſin-
8g	-gen
8a	hin
8a	und
=14	=14
4b	wie-
8cc}	-der
{8b	uns
=15	=15
2a	Lie-
=16	=16
4g	-der.
8r}	.
==	==
!!!AGN: Vaterland und Wehr
!!!ONB: ESAC (Essen Associative Code) Database: ZUCCAL
!!!AMT: simple duple
!!!AIN: vox
!!!EED: Helmut Schaffrath
!!!EEV: 1.0
!!!GTL: IV. Vaterland und Wehr.
!!!URL-scan: https://www.digitale-sammlungen.de/de/view/bsb11160573?page=301
!!!ENC: Anna Maria Matuszewska
!!!EEV: 2025/02/04
*-	*-
